X: 1
T: Shalom Aleichem #1   [Am]
C: Rabbi Israel Goldfarb 1918
D: Andy Statman & David Grisman "Songs of our Fathers"
Z: John Chambers <jc:trillian.mit.edu>
M: C
L: a/8
K: Am
[|"Am"E2 cB A2 A2 \
| "E7"^GA BA GF E2 \
|1 ^G2 G2 "Am"AG Ac \
| "E7"B4 e4 \
:|2 "Dm"D2 A2 ^G2 F{EF}D \
| "E7"E4 z4 \
[|"C"cd e2 e2 e2 |
| "G7"dc Bc "E7"de d2 \
| "Am"cB AB ce dc \
| "E7"B4 z4 \
||"Dm"B2 d2 d2 d2 \
| "E7"df ed "Am"cB AE \
| c2 BA "E7"B2 A^G \
| "Am"A4 z4 |]
